!!!OTL: 574a. Alte Liebe rostet nicht.
!!!ARE: Europa, Mitteleuropa, Deutschland, Uckermark
!!!SCT: E0574
!!!TXL: @@DE
!!!YEM: Copyright 1995, estate of Helmut Schaffrath.
**kern	**text
*ICvox	*
*M2/4	*
*k[b-]	*
*F:	*
=1	=1
!LO:TX:a:t=Mäßig.	!
!LO:TX:a:t=Melodie aus der Uckermark. Erk III, 1, Nr. 27.	!
{8f	Grü-
8g	-ne
8a	Pe-
8b-	-ter-
=2	=2
4cc	-ſi-
8cc	-lie,
8cc	du
=3	=3
(8dd	wun-
8ee)	-der-
8ff	-ſchö-
8dd	-nes
=4	=4
(4dd	Kraut!
8cc)}	.
{8a	Jch
=5	=5
4cc	ha-
8b-	-be
8b-	meim
=6	=6
4g	Schä-
8g	-tʒel
8g	gar
=7	=7
8b-L	Vie-
8aJ	.
8a	-les
8a	ver-
=8	=8
4f	-traut;
8r}	.
{8a	gar
=9	=9
4cc	Vie-
8b-	-les
8b-	ver-
=10	=10
4.g	-traut
8g	und
=11	=11
4f	vie-
8e	-les
8f	ver-
=12	=12
4.cc	-ſpricht!
8r}	.
=13	=13
{4b-	Al-
4b-	-te
=14	=14
4g	Lie-
8g	-be
8g	die
=15	=15
4a	ro-
4a	-ſtet
=16	=16
4f	nicht.
4r}	.
==	==
!!!AGN: Liebes - Lied
!!!ONB: ESAC (Essen Associative Code) Database: ERK1
!!!AMT: simple duple
!!!AIN: vox
!!!EED: Helmut Schaffrath
!!!EEV: 1.0
!!!GTL: Liebeslieder [Neuere (aus dem 18. bis 19. Jahrh.) - Liebeslust]
!!!URL-scan: https://rosdok.uni-rostock.de/mcrviewer/recordIdentifier/rosdok_ppn745177662/iview2/phys_0405.iview2?x=-128.77276441889308&y=141.384980060393&scale=0.5870222003877485&rotation=0&layout=singlePageLayout
!!!ENC: Anna Maria Matuszewska
!!!EEV: 2024/11/12
*-	*-
